travel/img/icons/steps3.svg

<svg width="60" height="45" viewBox="0 0 60 45" fill="none" xmlns="http://www.w3.org/2000/svg">
<path d="M53.9305 42.9545C53.9305 43.497 53.7174 44.0173 53.3379 44.4009C52.9585 44.7845 52.4439 45 51.9074 45H15.4904C14.9539 45 14.4393 44.7845 14.0598 44.4009C13.6804 44.0173 13.4673 43.497 13.4673 42.9545C13.4673 42.4121 13.6804 41.8918 14.0598 41.5082C14.4393 41.1246 14.9539 40.9091 15.4904 40.9091H51.9074C52.4439 40.9091 52.9585 41.1246 53.3379 41.5082C53.7174 41.8918 53.9305 42.4121 53.9305 42.9545ZM60 22.5V28.6364C60 29.1789 59.7868 29.6991 59.4074 30.0827C59.028 30.4663 58.5134 30.6818 57.9768 30.6818H13.4167C11.24 30.6894 9.11942 29.9834 7.37311 28.6696C5.6268 27.3558 4.34881 25.5051 3.7308 23.3949L0.164977 11.4034C-0.0121092 10.7898 -0.0471935 10.1431 0.0624379 9.51357C0.172069 8.88401 0.423478 8.28837 0.797215 7.77275C1.17939 7.26416 1.67273 6.85181 2.23866 6.56794C2.8046 6.28407 3.4278 6.13637 4.05956 6.13639H8.40936C8.70472 6.13701 8.99627 6.20383 9.26302 6.33204C9.52977 6.46025 9.76509 6.64667 9.95202 6.87786L14.403 12.2727H18.7528L16.4767 5.39491C16.2718 4.77893 16.215 4.12246 16.3111 3.47987C16.4071 2.83728 16.6531 2.22707 17.0288 1.69976C17.4046 1.17246 17.8991 0.743236 18.4716 0.447651C19.0441 0.152067 19.6779 -0.00137704 20.3207 2.79722e-05H24.5947C24.8756 -0.00146688 25.1537 0.0569681 25.4108 0.171517C25.6679 0.286065 25.8983 0.454151 26.0867 0.6648L36.6072 12.2727H49.8842C52.5671 12.2727 55.1401 13.3503 57.0372 15.2682C58.9342 17.1862 60 19.7876 60 22.5ZM55.9537 22.5C55.947 20.8746 55.3054 19.3177 54.1686 18.1684C53.0318 17.0191 51.4919 16.3704 49.8842 16.3637H35.7221C35.4411 16.3651 35.163 16.3067 34.9059 16.1922C34.6488 16.0776 34.4185 15.9095 34.23 15.6989L23.7095 4.09093H20.3207L23.4819 13.679C23.5809 13.9865 23.6073 14.3132 23.559 14.6328C23.5107 14.9525 23.389 15.2563 23.2037 15.5199C23.0169 15.7837 22.77 15.9981 22.4838 16.1449C22.1977 16.2918 21.8808 16.3668 21.5599 16.3637H13.4673C13.1719 16.363 12.8804 16.2962 12.6136 16.168C12.3469 16.0398 12.1115 15.8534 11.9246 15.6222L7.47365 10.2273H4.03428L7.6001 22.2188C7.97187 23.4853 8.73962 24.5959 9.78826 25.3841C10.8369 26.1723 12.11 26.5958 13.4167 26.5909H55.9537V22.5Z" fill="white"/>
</svg>

<svg width="60" height="45" viewBox="0 0 60 45" fill="none" xmlns="http://www.w3.org/2000/svg"><path d="M53.93 42.955c0 .542-.213 1.062-.592 1.446-.38.383-.894.599-1.43.599H15.49a2.012 2.012 0 0 1-1.43-.6 2.057 2.057 0 0 1-.593-1.445c0-.543.213-1.063.593-1.447.38-.383.894-.599 1.43-.599h36.417c.537 0 1.052.216 1.43.6.38.383.593.903.593 1.446ZM60 22.5v6.136c0 .543-.213 1.063-.593 1.447a2.013 2.013 0 0 1-1.43.599h-44.56a9.993 9.993 0 0 1-6.044-2.012 10.177 10.177 0 0 1-3.642-5.275L.165 11.403a4.212 4.212 0 0 1 .632-3.63 4.105 4.105 0 0 1 1.442-1.205 4.06 4.06 0 0 1 1.82-.432h4.35a1.98 1.98 0 0 1 1.543.742l4.451 5.395h4.35l-2.276-6.878a4.132 4.132 0 0 1 .552-3.695A4.06 4.06 0 0 1 18.472.448 4.01 4.01 0 0 1 20.32 0h4.274a1.98 1.98 0 0 1 1.492.665l10.52 11.608h13.277a10.06 10.06 0 0 1 7.153 2.995A10.285 10.285 0 0 1 60 22.5Zm-4.046 0a6.196 6.196 0 0 0-1.785-4.332 6.061 6.061 0 0 0-4.285-1.804H35.722a1.982 1.982 0 0 1-1.492-.665L23.71 4.09h-3.39l3.162 9.588a2.093 2.093 0 0 1-.278 1.84 2.002 2.002 0 0 1-1.644.845h-8.093a1.981 1.981 0 0 1-1.542-.742l-4.451-5.395h-3.44L7.6 22.22a6.11 6.11 0 0 0 2.188 3.165 6 6 0 0 0 3.629 1.207h42.537V22.5Z" fill="#fff"/></svg>
